src/assets/filled/DirectInbox.svg

<?xml version="1.0" encoding="UTF-8"?>
<svg width="24" height="24" viewBox="0 0 24 24" xmlns="http://www.w3.org/2000/svg">
 <path d="m21.3 12.23h-3.48c-0.98 0-1.85 0.54-2.29 1.42l-0.84 1.66c-0.2 0.4-0.6 0.65-1.04 0.65h-3.28c-0.31 0-0.75-0.07-1.04-0.65l-0.84-1.65c-0.44-0.87-1.32-1.42-2.29-1.42h-3.5c-0.39 0-0.7 0.31-0.7 0.7v3.26c0 3.63 2.18 5.8 5.82 5.8h8.38c3.43 0 5.54-1.88 5.8-5.22v-3.85c0-0.38-0.31-0.7-0.7-0.7z"/>
 <path d="m12.75 2c0-0.41-0.34-0.75-0.75-0.75s-0.75 0.34-0.75 0.75v2h1.5v-2z"/>
 <path d="m22 9.81v1.04c-0.22-0.08-0.46-0.12-0.7-0.12h-3.48c-1.55 0-2.94 0.86-3.63 2.24l-0.75 1.48h-2.86l-0.75-1.47c-0.69-1.39-2.08-2.25-3.63-2.25h-3.5c-0.24 0-0.48 0.04-0.7 0.12v-1.04c0-3.64 2.17-5.81 5.81-5.81h3.44v3.19l-0.72-0.72c-0.29-0.29-0.77-0.29-1.06 0s-0.29 0.77 0 1.06l2 2c0.01 0.01 0.02 0.01 0.02 0.02 0.07 0.06 0.14 0.11 0.22 0.14 0.1 0.04 0.19 0.06 0.29 0.06s0.19-0.02 0.28-0.06c0.09-0.03 0.18-0.09 0.25-0.16l2-2c0.29-0.29 0.29-0.77 0-1.06s-0.77-0.29-1.06 0l-0.72 0.72v-3.19h3.44c3.64 0 5.81 2.17 5.81 5.81z"/>
</svg>

<svg width="24" height="24" viewBox="0 0 24 24"  xmlns="http://www.w3.org/2000/svg">
<path d="M21.3 12.23H17.82C16.84 12.23 15.97 12.77 15.53 13.65L14.69 15.31C14.49 15.71 14.09 15.96 13.65 15.96H10.37C10.06 15.96 9.62 15.89 9.33 15.31L8.49 13.66C8.05 12.79 7.17 12.24 6.2 12.24H2.7C2.31 12.24 2 12.55 2 12.94V16.2C2 19.83 4.18 22 7.82 22H16.2C19.63 22 21.74 20.12 22 16.78V12.93C22 12.55 21.69 12.23 21.3 12.23Z" />
<path d="M12.75 2C12.75 1.59 12.41 1.25 12 1.25C11.59 1.25 11.25 1.59 11.25 2V4H12.75V2Z" />
<path d="M22 9.81V10.85C21.78 10.77 21.54 10.73 21.3 10.73H17.82C16.27 10.73 14.88 11.59 14.19 12.97L13.44 14.45H10.58L9.83 12.98C9.14 11.59 7.75 10.73 6.2 10.73H2.7C2.46 10.73 2.22 10.77 2 10.85V9.81C2 6.17 4.17 4 7.81 4H11.25V7.19L10.53 6.47C10.24 6.18 9.76 6.18 9.47 6.47C9.18 6.76 9.18 7.24 9.47 7.53L11.47 9.53C11.48 9.54 11.49 9.54 11.49 9.55C11.56 9.61 11.63 9.66 11.71 9.69C11.81 9.73 11.9 9.75 12 9.75C12.1 9.75 12.19 9.73 12.28 9.69C12.37 9.66 12.46 9.6 12.53 9.53L14.53 7.53C14.82 7.24 14.82 6.76 14.53 6.47C14.24 6.18 13.76 6.18 13.47 6.47L12.75 7.19V4H16.19C19.83 4 22 6.17 22 9.81Z" />
</svg>
